images/building.svg

<svg width="24" height="24" xmlns="http://www.w3.org/2000/svg" fill-rule="evenodd" clip-rule="evenodd"><path d="M6 7v-7h13v10h5v14h-23v-17h5zm0 16v-4h-1v4h1zm8-4h-3v4h3v-4zm6 0h-1v4h1v-4zm2-7h-3v6h2v4h1v-10zm-5-10h-9v20h1v-5h7v5h1v-20zm-13 20v-4h2v-9h-3v13h1zm17-6h-1v-2h1v2zm-17-2h1v2h-1v-2zm8 1h-2v-2h2v2zm3 0h-2v-2h2v2zm-10-4v2h-1v-2h1zm7 1h-2v-2h2v2zm3 0h-2v-2h2v2zm-3-3h-2v-2h2v2zm3 0h-2v-2h2v2zm-3-3h-2v-2h2v2zm3 0h-2v-2h2v2z"/></svg>

<?xml version="1.0" encoding="utf-8"?>
<!-- Generator: Adobe Illustrator 22.1.0, SVG Export Plug-In . SVG Version: 6.00 Build 0)  -->
<svg version="1.1" id="Layer_1" xmlns="http://www.w3.org/2000/svg" xmlns:xlink="http://www.w3.org/1999/xlink" x="0px" y="0px"
	 viewBox="0 0 24 24" style="enable-background:new 0 0 24 24;" xml:space="preserve">
<style type="text/css">
	.st0{fill:#FFFFFF;}
</style>
<path class="st0" d="M6,7V0h13v10h5v14H1V7H6z M6,23v-4H5v4H6z M14,19h-3v4h3V19z M20,19h-1v4h1V19z M22,12h-3v6h2v4h1V12z M17,2H8
	v20h1v-5h7v5h1V2z M4,22v-4h2V9H3v13H4z M21,16h-1v-2h1V16z M4,14h1v2H4V14z M12,15h-2v-2h2V15z M15,15h-2v-2h2V15z M5,11v2H4v-2H5z
	 M12,12h-2v-2h2V12z M15,12h-2v-2h2V12z M12,9h-2V7h2V9z M15,9h-2V7h2V9z M12,6h-2V4h2V6z M15,6h-2V4h2V6z"/>
</svg>
